X: 10092
M: C|
L: 1/8
K: A
e2 |\
c>BAa (f/g/a) ec | df e>c B/B/B B>e |\
c>BAa (f/g/a) ec | d>fec A/A/A A2 :|\
e2 | Tc>BAc defd | cAec B/B/B Bd |
cAeA fAeA | cAec B/B/B Bg |\
afge fdec | d>fe>c A/A/A A2 |]


